flaticon/gastronomy/salad-1.svg

<svg xmlns="http://www.w3.org/2000/svg" width="32" height="32" viewBox="0 0 24 24">
    <path d="M 22.6875 8.359375 C 22.71875 6.738281 21.765625 5.277344 20.289062 4.644531 C 20.074219 3.257812 18.957031 2.175781 17.570312 1.992188 C 17.554688 1.855469 17.53125 1.71875 17.488281 1.582031 C 17.246094 0.746094 16.507812 0.117188 15.65625 0.015625 C 15.113281 -0.046875 14.578125 0.0898438 14.140625 0.394531 C 13.753906 0.136719 13.300781 0 12.835938 0 C 11.644531 0 10.65625 0.878906 10.484375 2.027344 C 10.441406 2.035156 10.398438 2.046875 10.359375 2.054688 C 10.316406 1.960938 10.277344 1.867188 10.230469 1.777344 C 9.621094 0.570312 8.546875 -0.128906 7.550781 0.03125 C 6.894531 0.136719 6.355469 0.582031 6.035156 1.253906 C 5.460938 0.988281 4.875 0.941406 4.34375 1.128906 C 3.777344 1.328125 3.339844 1.753906 3.074219 2.363281 C 2.71875 3.164062 2.71875 4.199219 3.058594 5.183594 C 2.601562 5.496094 2.257812 5.960938 2.058594 6.542969 C 1.71875 7.515625 1.832031 8.691406 2.367188 9.769531 C 2.425781 9.886719 2.488281 10.003906 2.558594 10.121094 C 2.058594 10.445312 1.683594 10.929688 1.480469 11.515625 C 1.160156 12.453125 1.304688 13.554688 1.867188 14.539062 C 2.128906 14.992188 2.472656 15.402344 2.875 15.738281 C 2.738281 16.296875 2.839844 16.914062 3.167969 17.472656 C 3.625 18.253906 4.453125 18.78125 5.320312 18.867188 C 6.691406 21.441406 8.390625 22.542969 11.007812 23.652344 L 11.035156 23.667969 C 11.402344 23.898438 11.824219 24 12.238281 24 C 12.484375 24 12.726562 23.960938 12.957031 23.898438 C 12.960938 23.894531 12.964844 23.898438 12.96875 23.894531 C 12.96875 23.894531 12.972656 23.894531 12.972656 23.890625 C 13.167969 23.835938 13.355469 23.761719 13.519531 23.664062 C 14.308594 23.203125 14.632812 22.414062 14.355469 21.605469 C 13.566406 19.285156 13.628906 17.542969 14.546875 16.429688 C 16.136719 14.5 19.820312 14.972656 19.855469 14.980469 L 20.285156 15.039062 L 20.328125 14.605469 C 20.332031 14.550781 20.457031 13.207031 19.671875 12.292969 C 19.625 12.242188 19.578125 12.191406 19.527344 12.144531 C 19.75 12.09375 19.96875 12.023438 20.183594 11.933594 C 21.671875 11.304688 22.652344 9.902344 22.6875 8.359375 Z M 5.953125 18.273438 L 5.835938 18.042969 L 5.578125 18.042969 C 5.574219 18.042969 5.570312 18.042969 5.566406 18.042969 C 4.910156 18.042969 4.234375 17.644531 3.886719 17.050781 C 3.632812 16.613281 3.582031 16.140625 3.742188 15.75 L 3.871094 15.445312 L 3.605469 15.25 C 3.195312 14.953125 2.84375 14.5625 2.59375 14.121094 C 2.144531 13.34375 2.027344 12.492188 2.269531 11.785156 C 2.453125 11.257812 2.816406 10.867188 3.320312 10.65625 L 3.816406 10.453125 L 3.496094 10.023438 C 3.347656 9.824219 3.21875 9.613281 3.113281 9.402344 C 2.683594 8.535156 2.585938 7.566406 2.847656 6.8125 C 3.019531 6.3125 3.335938 5.941406 3.757812 5.738281 L 4.117188 5.566406 L 3.964844 5.203125 L 3.945312 5.164062 C 3.578125 4.296875 3.539062 3.375 3.835938 2.695312 C 3.953125 2.425781 4.1875 2.070312 4.621094 1.917969 C 5.035156 1.769531 5.535156 1.871094 6.023438 2.199219 L 6.503906 2.523438 L 6.660156 1.964844 C 6.832031 1.335938 7.203125 0.933594 7.683594 0.855469 C 8.308594 0.75 9.050781 1.289062 9.488281 2.152344 C 9.523438 2.222656 9.554688 2.292969 9.585938 2.367188 C 9.574219 2.371094 9.566406 2.378906 9.558594 2.382812 C 9.472656 2.433594 9.390625 2.488281 9.308594 2.550781 C 9.261719 2.585938 9.214844 2.621094 9.171875 2.660156 C 9.140625 2.683594 9.109375 2.710938 9.082031 2.738281 C 8.914062 2.886719 8.765625 3.054688 8.636719 3.238281 C 8.628906 3.253906 8.617188 3.265625 8.609375 3.28125 C 8.535156 3.390625 8.46875 3.503906 8.410156 3.621094 C 8.394531 3.648438 8.382812 3.679688 8.367188 3.707031 C 8.34375 3.761719 8.320312 3.820312 8.296875 3.878906 C 8.273438 3.9375 8.253906 3.996094 8.234375 4.058594 C 8.21875 4.109375 8.203125 4.160156 8.1875 4.214844 C 8.167969 4.304688 8.148438 4.394531 8.132812 4.488281 C 8.128906 4.523438 8.125 4.554688 8.121094 4.589844 C 8.105469 4.703125 8.097656 4.820312 8.097656 4.9375 C 8.097656 5.011719 8.101562 5.089844 8.105469 5.167969 C 6.527344 5.449219 5.347656 6.824219 5.347656 8.472656 C 5.347656 8.949219 5.449219 9.421875 5.648438 9.859375 C 5.203125 10.332031 4.953125 10.957031 4.953125 11.617188 C 4.953125 12.601562 5.519531 13.496094 6.390625 13.925781 C 6.386719 14.152344 6.390625 14.367188 6.398438 14.582031 C 6.402344 14.652344 6.40625 14.71875 6.410156 14.785156 C 6.417969 14.929688 6.425781 15.070312 6.4375 15.207031 C 6.445312 15.285156 6.453125 15.363281 6.460938 15.441406 C 6.472656 15.566406 6.488281 15.691406 6.503906 15.8125 C 6.515625 15.890625 6.527344 15.96875 6.542969 16.046875 C 6.558594 16.164062 6.582031 16.28125 6.601562 16.394531 C 6.617188 16.472656 6.632812 16.546875 6.652344 16.625 C 6.675781 16.738281 6.703125 16.851562 6.730469 16.960938 C 6.75 17.035156 6.769531 17.105469 6.789062 17.179688 C 6.820312 17.296875 6.855469 17.410156 6.894531 17.527344 C 6.914062 17.589844 6.933594 17.652344 6.953125 17.714844 C 7 17.851562 7.054688 17.988281 7.105469 18.125 C 7.121094 18.160156 7.132812 18.199219 7.148438 18.238281 C 7.21875 18.410156 7.292969 18.578125 7.375 18.75 C 7.394531 18.796875 7.421875 18.84375 7.445312 18.890625 C 7.503906 19.011719 7.5625 19.132812 7.625 19.253906 C 7.660156 19.316406 7.695312 19.382812 7.734375 19.445312 C 7.789062 19.550781 7.847656 19.652344 7.910156 19.753906 C 7.949219 19.824219 7.992188 19.894531 8.035156 19.960938 C 8.09375 20.058594 8.15625 20.15625 8.21875 20.253906 C 8.265625 20.324219 8.3125 20.398438 8.359375 20.46875 C 8.425781 20.566406 8.492188 20.660156 8.558594 20.757812 C 8.609375 20.832031 8.660156 20.902344 8.710938 20.972656 C 8.78125 21.074219 8.855469 21.171875 8.929688 21.269531 C 8.984375 21.339844 9.035156 21.410156 9.089844 21.484375 C 9.171875 21.589844 9.257812 21.695312 9.339844 21.800781 C 9.390625 21.867188 9.441406 21.929688 9.496094 21.996094 C 9.5 22.003906 9.503906 22.007812 9.507812 22.015625 C 7.976562 21.160156 6.894531 20.125 5.953125 18.273438 Z M 18.011719 11.308594 L 17.902344 11.292969 L 17.496094 11.386719 L 17.453125 12.304688 L 17.867188 12.328125 C 18.382812 12.351562 18.765625 12.519531 19.035156 12.835938 C 19.367188 13.21875 19.46875 13.746094 19.496094 14.105469 C 18.347656 14.03125 15.429688 14.042969 13.90625 15.894531 C 12.789062 17.25 12.675781 19.257812 13.566406 21.871094 C 13.761719 22.453125 13.355469 22.792969 13.097656 22.941406 C 13.078125 22.953125 13.058594 22.960938 13.039062 22.96875 C 12.222656 20.964844 11.714844 19.179688 11.441406 17.597656 C 11.4375 17.585938 11.4375 17.578125 11.4375 17.566406 C 11.21875 16.304688 11.148438 15.167969 11.191406 14.152344 C 11.773438 13.15625 13.488281 13.117188 13.507812 13.117188 C 13.738281 13.113281 13.921875 12.921875 13.917969 12.691406 C 13.914062 12.464844 13.730469 12.28125 13.5 12.28125 C 13.5 12.28125 13.496094 12.28125 13.496094 12.28125 C 13.429688 12.28125 12.238281 12.308594 11.296875 12.898438 C 11.410156 12.074219 11.601562 11.34375 11.839844 10.691406 C 11.863281 10.664062 11.882812 10.632812 11.902344 10.597656 C 11.925781 10.546875 11.9375 10.488281 11.9375 10.433594 C 12.234375 9.683594 12.59375 9.050781 12.96875 8.523438 C 14.839844 8.136719 16.25 8.71875 16.28125 8.734375 C 16.335938 8.757812 16.394531 8.769531 16.449219 8.769531 C 16.609375 8.769531 16.761719 8.675781 16.828125 8.519531 C 16.921875 8.308594 16.828125 8.0625 16.617188 7.96875 C 16.558594 7.945312 15.40625 7.453125 13.753906 7.574219 C 14.5625 6.730469 15.269531 6.347656 15.375 6.296875 C 15.980469 6.003906 16.867188 6.378906 17.15625 6.550781 C 17.222656 6.589844 17.296875 6.605469 17.367188 6.605469 C 17.511719 6.605469 17.652344 6.535156 17.726562 6.402344 C 17.84375 6.203125 17.78125 5.949219 17.582031 5.832031 C 17.53125 5.804688 16.59375 5.261719 15.636719 5.371094 C 15.71875 5.03125 15.898438 4.722656 15.992188 4.601562 C 16.132812 4.417969 16.097656 4.15625 15.914062 4.015625 C 15.730469 3.878906 15.46875 3.910156 15.332031 4.09375 C 15.304688 4.128906 14.757812 4.855469 14.757812 5.691406 C 14.152344 6.0625 12.585938 7.1875 11.488281 9.449219 C 11.429688 9.570312 11.371094 9.703125 11.316406 9.835938 C 10.175781 9.058594 10.363281 7.671875 10.375 7.605469 C 10.410156 7.378906 10.253906 7.167969 10.027344 7.128906 C 9.800781 7.089844 9.585938 7.25 9.550781 7.476562 C 9.429688 8.234375 9.605469 9.792969 11.007812 10.628906 C 10.699219 11.542969 10.464844 12.632812 10.390625 13.917969 C 10.382812 13.957031 10.378906 13.996094 10.382812 14.035156 C 10.339844 14.9375 10.382812 15.9375 10.527344 17.03125 C 10 16.738281 9.757812 16.3125 9.742188 16.285156 C 9.632812 16.082031 9.382812 16.003906 9.179688 16.113281 C 8.976562 16.21875 8.898438 16.472656 9.003906 16.675781 C 9.027344 16.71875 9.523438 17.640625 10.679688 17.996094 C 10.960938 19.535156 11.453125 21.253906 12.21875 23.164062 C 11.957031 23.160156 11.695312 23.09375 11.472656 22.953125 C 11.429688 22.925781 11.390625 22.898438 11.355469 22.867188 C 11.308594 22.832031 11.261719 22.796875 11.222656 22.75 C 11.222656 22.75 11.21875 22.746094 11.214844 22.746094 L 11.042969 22.542969 C 8.429688 19.539062 7.125 17.34375 7.226562 13.667969 L 7.238281 13.363281 L 6.949219 13.261719 C 6.253906 13.015625 5.785156 12.355469 5.785156 11.617188 C 5.785156 11.09375 6.019531 10.601562 6.425781 10.269531 L 6.699219 10.046875 L 6.519531 9.738281 C 6.296875 9.351562 6.179688 8.917969 6.179688 8.476562 C 6.179688 7.117188 7.242188 6.007812 8.601562 5.949219 L 9.109375 5.929688 L 8.992188 5.4375 C 8.949219 5.265625 8.929688 5.097656 8.929688 4.9375 C 8.929688 4.808594 8.945312 4.683594 8.964844 4.5625 C 8.972656 4.53125 8.980469 4.5 8.988281 4.46875 C 9.007812 4.375 9.035156 4.28125 9.070312 4.191406 C 9.078125 4.164062 9.089844 4.140625 9.097656 4.117188 C 9.144531 4.007812 9.195312 3.90625 9.257812 3.808594 C 9.261719 3.804688 9.261719 3.800781 9.265625 3.796875 C 9.398438 3.585938 9.570312 3.402344 9.765625 3.25 C 9.792969 3.226562 9.824219 3.210938 9.851562 3.191406 C 9.917969 3.144531 9.988281 3.101562 10.058594 3.0625 C 10.105469 3.039062 10.148438 3.015625 10.195312 2.996094 C 10.414062 2.894531 10.652344 2.828125 10.902344 2.808594 L 11.289062 2.777344 L 11.289062 2.359375 C 11.300781 1.515625 11.992188 0.832031 12.835938 0.832031 C 13.214844 0.832031 13.582031 0.976562 13.871094 1.238281 L 14.164062 1.5 L 14.441406 1.226562 C 14.738281 0.933594 15.140625 0.792969 15.558594 0.84375 C 16.082031 0.90625 16.539062 1.296875 16.691406 1.816406 C 16.738281 1.988281 16.753906 2.160156 16.734375 2.335938 L 16.691406 2.800781 L 17.160156 2.800781 C 18.382812 2.800781 19.402344 3.753906 19.484375 4.96875 L 19.503906 5.246094 L 19.765625 5.335938 C 21.042969 5.785156 21.878906 6.992188 21.851562 8.34375 C 21.828125 9.554688 21.046875 10.664062 19.859375 11.164062 C 19.265625 11.414062 18.660156 11.460938 18.011719 11.308594 Z M 18.011719 11.308594"/>
</svg>

<svg xmlns="http://www.w3.org/2000/svg" width="32" height="32" viewBox="0 0 24 24">
    <path d="M22.688 8.36a3.953 3.953 0 0 0-2.399-3.715 3.178 3.178 0 0 0-2.719-2.653 2.18 2.18 0 0 0-.082-.41A2.209 2.209 0 0 0 15.656.016a2.202 2.202 0 0 0-1.515.379A2.35 2.35 0 0 0 12.836 0a2.38 2.38 0 0 0-2.352 2.027c-.043.008-.086.02-.125.028-.043-.094-.082-.188-.129-.278C9.621.57 8.547-.129 7.55.031c-.655.106-1.195.551-1.515 1.223-.574-.266-1.16-.313-1.691-.125-.567.2-1.004.625-1.27 1.234-.355.801-.355 1.836-.015 2.82-.457.313-.801.778-1 1.36-.34.973-.227 2.148.308 3.227.059.117.121.234.192.351-.5.324-.875.809-1.079 1.395-.32.937-.175 2.039.387 3.023.262.453.606.863 1.008 1.2-.137.558-.035 1.175.293 1.734a2.87 2.87 0 0 0 2.152 1.394c1.371 2.574 3.07 3.676 5.688 4.785l.027.016c.367.23.79.332 1.203.332.246 0 .489-.04.719-.102.004-.003.008 0 .012-.003 0 0 .004 0 .004-.004a2.27 2.27 0 0 0 .547-.227c.789-.46 1.113-1.25.835-2.059-.789-2.32-.726-4.062.192-5.175 1.59-1.93 5.273-1.457 5.308-1.45l.43.06.043-.435c.004-.054.129-1.398-.656-2.312-.047-.05-.094-.102-.145-.148.223-.051.442-.122.657-.211 1.488-.63 2.468-2.032 2.503-3.575zM5.953 18.272l-.117-.23h-.27c-.656 0-1.332-.398-1.68-.992-.253-.438-.304-.91-.144-1.301l.13-.305-.267-.195a3.591 3.591 0 0 1-1.011-1.129c-.45-.777-.567-1.629-.324-2.336a1.846 1.846 0 0 1 1.05-1.129l.496-.203-.32-.43a4.16 4.16 0 0 1-.383-.62c-.43-.868-.527-1.837-.265-2.59.172-.5.488-.872.91-1.075l.36-.172-.153-.363-.02-.039c-.367-.867-.406-1.789-.11-2.469.118-.27.353-.625.786-.777.414-.148.914-.047 1.402.281l.48.324.157-.558c.172-.63.543-1.031 1.024-1.11.625-.105 1.367.434 1.804 1.297.035.07.067.141.098.215-.012.004-.02.012-.027.016-.086.05-.168.105-.25.168-.047.035-.094.07-.137.11a2.853 2.853 0 0 0-.535.578c-.008.015-.02.027-.028.042a2.97 2.97 0 0 0-.199.34c-.015.027-.027.059-.043.086a7.766 7.766 0 0 0-.07.172 2.427 2.427 0 0 0-.063.18l-.046.156c-.02.09-.04.18-.055.273l-.012.102c-.016.113-.023.23-.023.348 0 .074.004.152.007.23a3.35 3.35 0 0 0-2.757 3.305c0 .476.101.949.3 1.386a2.556 2.556 0 0 0-.695 1.758c0 .985.567 1.88 1.438 2.309-.004.226 0 .441.007.656l.012.203c.008.145.016.285.027.422l.024.234c.012.125.027.25.043.371.012.079.023.157.039.235.016.117.039.234.059.348.015.078.03.152.05.23.024.113.051.227.078.336l.06.219c.03.117.065.23.105.347l.058.188c.047.137.102.273.152.41.016.035.028.074.043.113.07.172.145.34.227.512.02.047.047.094.07.14.059.122.117.243.18.364.035.062.07.129.11.191.054.106.113.207.175.309.04.07.082.14.125.207.059.098.121.195.184.293.047.07.094.144.14.215l.2.289c.05.074.101.144.152.215.07.101.144.199.219.297.054.07.105.14.16.214.082.106.168.211.25.317.05.066.101.129.156.195l.012.02c-1.531-.856-2.613-1.891-3.555-3.743zm12.059-6.964l-.11-.016-.406.094-.043.918.414.023c.516.024.899.192 1.168.508.332.383.434.91.461 1.27-1.148-.075-4.066-.063-5.59 1.789-1.117 1.355-1.23 3.363-.34 5.976.196.582-.21.922-.468 1.07a.394.394 0 0 1-.059.028c-.816-2.004-1.324-3.79-1.598-5.371-.004-.012-.004-.02-.004-.032a16.041 16.041 0 0 1-.246-3.414c.582-.996 2.297-1.035 2.317-1.035a.419.419 0 0 0-.008-.836h-.004c-.066 0-1.258.028-2.2.617a10.61 10.61 0 0 1 .544-2.207.56.56 0 0 0 .062-.093.4.4 0 0 0 .036-.164 9.006 9.006 0 0 1 1.03-1.91c1.872-.387 3.282.195 3.313.21a.411.411 0 0 0 .547-.215.416.416 0 0 0-.21-.55c-.06-.024-1.212-.516-2.864-.395.809-.844 1.516-1.226 1.621-1.277.605-.293 1.492.082 1.781.254.067.039.14.054.211.054.145 0 .285-.07.36-.203a.414.414 0 0 0-.145-.57c-.05-.027-.988-.57-1.945-.46.082-.34.261-.65.355-.77a.417.417 0 0 0-.66-.508c-.027.035-.574.761-.574 1.597-.606.372-2.172 1.497-3.27 3.758a7.168 7.168 0 0 0-.172.387c-1.14-.777-.953-2.164-.941-2.23a.42.42 0 0 0-.348-.477.416.416 0 0 0-.476.348c-.121.757.054 2.316 1.457 3.152a12.485 12.485 0 0 0-.617 3.289.395.395 0 0 0-.008.117c-.043.902 0 1.902.144 2.996-.527-.293-.77-.718-.785-.746a.418.418 0 0 0-.738.39c.023.044.52.966 1.676 1.321.28 1.54.773 3.258 1.539 5.168a1.436 1.436 0 0 1-.746-.21.907.907 0 0 1-.118-.087c-.046-.035-.093-.07-.132-.117 0 0-.004-.004-.008-.004l-.172-.203c-2.613-3.004-3.918-5.2-3.816-8.875l.011-.305-.289-.101a1.748 1.748 0 0 1-1.164-1.645c0-.523.235-1.015.64-1.347l.274-.223-.18-.309A2.526 2.526 0 0 1 8.603 5.95l.507-.02-.117-.492a2.061 2.061 0 0 1-.027-.875l.023-.093c.02-.094.047-.188.082-.278.008-.027.02-.05.028-.074.047-.11.097-.21.16-.308.004-.004.004-.008.008-.012.132-.211.304-.395.5-.547.027-.023.058-.04.086-.059.066-.046.136-.09.207-.128.046-.024.09-.047.136-.067a2.06 2.06 0 0 1 .707-.187l.387-.032V2.36A1.551 1.551 0 0 1 12.836.832c.379 0 .746.145 1.035.406l.293.262.277-.273c.297-.293.7-.434 1.118-.383.523.062.98.453 1.132.972.047.172.063.344.043.52l-.043.465h.47c1.222 0 2.241.953 2.323 2.168l.02.277.262.09a3.113 3.113 0 0 1 2.086 3.008c-.024 1.21-.805 2.32-1.993 2.82a2.9 2.9 0 0 1-1.847.145zm0 0"/>
</svg>
